X:5547
T:Richards Welcome to Lancaster
O:england
M:4/4
C:Andy Hornby \& John Mabson
A:Lancaster
K:C
E2A2 BcBA| BcBA BcBA| E2A2 BcBA| BcBA e4|\
E2A2 BcBA| BcBA BcBA|
BcBA dcBA| ^GABc A4::\
e2dc B2A2| BcBA BcBA|
e2dc BA^GA| BcBA B4|\
e2dc B2A2| BcBA Bcdf| efed edcB| AcB^G A4::
E2A^G A2AB| c2BA ^GABc| E2AG A2AB| cBcA e4|\
E2A^G A2AB| cded cBcA|
Bcdc BA^GA| BcB^G A4::\
e2a2 g2f2| edef e2c2|
dcde dcBc| dedB c2A2|\
e2a2 gfed| edef e2c2| dedc BA^GA| BcB^G A4:|
W:Copyright (C) A. Hornby / J. Mabson


